X: 36211
T: Screw The Nut
R: hornpipe
M: 4/4
K: Fmajor
(3CD=E|:F>G _A>B c>f (3f=ef|_d>f (3Bc_d c>f (3FG_A|G>c (3c_c=c =E>c (3c_c=c|1 C>=E G>B c>B _A>G:|2 C>B _A>G F2||
(3CD=E|:F>G _A>B c>f (3f=ef|_d>f (3Bc_d c>f (3FG_A|G>c (3c_c=c =E>c (3c_c=c|1 C>=E G>B c>B _A>G:|2 C>B _A>G F>f f>=e||
|:f>_d _d>c _d>f f>=e|f>c c>_c =c2 c>_A|G>c (3c_c=c =E>c (3c_c=c|1 (3GBc (3f_ac' (3f'c'_a f>=e:|2 C>B _A>G F>f f>=e||
|:f>_d _d>c _d>f f>=e|f>c c>_c =c2 c>_A|G>c (3c_c=c =E>c (3c_c=c|1 (3GBc (3f_ac' (3f'c'_a f>=e:|2 C>B _A>G F2||

